icons/add-user-16.svg

<svg width="16" height="16" viewBox="0 0 16 16" fill="none" xmlns="http://www.w3.org/2000/svg">
<g clip-path="url(#clip0)">
<path fill-rule="evenodd" clip-rule="evenodd" d="M13.25 0C13.6642 0 14 0.335786 14 0.75V2H15.25C15.6642 2 16 2.33579 16 2.75C16 3.16421 15.6642 3.5 15.25 3.5H14V4.75C14 5.16421 13.6642 5.5 13.25 5.5C12.8358 5.5 12.5 5.16421 12.5 4.75V3.5H11.25C10.8358 3.5 10.5 3.16421 10.5 2.75C10.5 2.33579 10.8358 2 11.25 2H12.5V0.75C12.5 0.335786 12.8358 0 13.25 0ZM5.50002 4C4.39545 4 3.50002 4.89543 3.50002 6C3.50002 7.10457 4.39545 8 5.50002 8C6.60459 8 7.50002 7.10457 7.50002 6C7.50002 4.89543 6.60459 4 5.50002 4ZM7.8993 8.54824C8.57695 7.90996 9.00002 7.00439 9.00002 6C9.00002 4.067 7.43302 2.5 5.50002 2.5C3.56703 2.5 2.00002 4.067 2.00002 6C2.00002 7.00439 2.42309 7.90996 3.10074 8.54824C1.34719 9.39897 0.118806 11.1545 0.00124883 13.2071C-0.0224353 13.6207 0.293602 13.9751 0.707138 13.9988C1.12067 14.0225 1.47511 13.7064 1.49879 13.2929C1.62014 11.1742 3.3584 9.5 5.50002 9.5C7.64164 9.5 9.3799 11.1742 9.50125 13.2929C9.52493 13.7064 9.87937 14.0225 10.2929 13.9988C10.7064 13.9751 11.0225 13.6207 10.9988 13.2071C10.8812 11.1545 9.65285 9.39897 7.8993 8.54824Z" fill="black"/>
</g>
<defs>
<clipPath id="clip0">
<rect width="16" height="16" fill="white"/>
</clipPath>
</defs>
</svg>

<svg xmlns="http://www.w3.org/2000/svg" width="16" height="16" viewBox="0 0 16 16"><path fill-rule="evenodd" d="M13.25 0a.75.75 0 01.75.75V2h1.25a.75.75 0 010 1.5H14v1.25a.75.75 0 01-1.5 0V3.5h-1.25a.75.75 0 010-1.5h1.25V.75a.75.75 0 01.75-.75zM5.5 4a2 2 0 100 4 2 2 0 000-4zm2.4 4.548a3.5 3.5 0 10-4.799 0 5.527 5.527 0 00-3.1 4.66.75.75 0 101.498.085A4.01 4.01 0 015.5 9.5a4.01 4.01 0 014.001 3.793.75.75 0 101.498-.086 5.527 5.527 0 00-3.1-4.659z"/></svg>
